X: 28
T: Nieście chwałę mocarӡe Panu mocniejsӡemu
C: Mikołaj Gomółka
%%abc-version 2.0
%%abcx-abcm2ps-target-version 5.9.1 (29 Sep 2008)
%%abc-creator hum2abc beta
%%abcx-conversion-date 2021/10/04 07:59:09
%%abc-edited-by Anna Matusӡewska
%%abcx-initial-encoding-date 2020-02-06
%%humdrum-veritas 2850436495
%%humdrum-veritas-data 2539401629
%%linebreak <none>
%%barnumbers 0
L: 1/4
M: C|
N: Derived from pl-wn--sd-xvi-qu-273--029_gomolka-mikolaj--niescie-chwale-mocarze-panu-mocniejszemu.krn
%%staves [1 2 3 4]
V: 1
V: 2 clef=alto
V: 3 clef=alto
V: 4 clef=bass
K: F
[V:1] A2A2B3A [|] 
[V:2] F2F2DEF2 [|] 
[V:3] C2C2D3C [|] 
[V:4] F,2F,2B,,3F,, [|] 
[V:1] G2G2A2zA [|] 
[V:2] EF2EF2zF [|] 
[V:3] C2>B,2A,2zC [|] 
[V:4] C,2C,2F,,2zF,, [|] 
[V:1] G2F2F2E2 [|] 
[V:2] D2C2D2CB, [|] 
[V:3] B,2A,2G,2G,2 [|] 
[V:4] G,,2A,,2B,,2C,2 [|] 
[V:1] F4 [|] 
[V:2] A,4 [|] 
[V:3] F,4 [|] 
[V:4] F,,4 [|] 
[V:1] A2A2 [I:setbarnb 5][|] 
[V:2] A,2D2 [|] 
[V:3] C2F2 [|] 
[V:4] F,2D,E, [|] 
[V:1] ABc2c2B2 [|] 
[V:2] C2C2A2GF [|] 
[V:3] F2E2F2D2 [|] 
[V:4] F,G,A,2F,2G,2 [|] 
[V:1] c2A2dcc2 [|] 
[V:2] E2D2D2EF [|] 
[V:3] C2F2F2E2 [|] 
[V:4] C,2D,2B,,2C,2 [|] 
[V:1] c2B2c4 [|] 
[V:2] G2>F2E4 [|] 
[V:3] D2D2C4 [|] 
[V:4] G,,2G,,2C,4 [|] 
[V:1] A2A2A2GA [|] 
[V:2] C2C2C2C2 [|] 
[V:3] F2F2F2E2 [|] 
[V:4] F,,2F,2F,2C,2 [|] 
[V:1] BA/B/AGA2A2 [|] 
[V:2] F2F2F3E [|] 
[V:3] D2D2C2C2 [|] 
[V:4] D,2>E,2F,2F,,2 [|] 
[V:1] G2F2F2E2 [|] 
[V:2] D2C2D2CB, [|] 
[V:3] B,2A,2G,2G,2 [|] 
[V:4] G,,2A,,2B,,2C,2 [|] 
[V:1] F8 [|] 
[V:2] A,8 [|] 
[V:3] A,8 [|] 
[V:4] F,,8 [|] 


